extensions/Flow/modules/notification/icon/flowusertalk-new-topic.svg

<?xml version="1.0" encoding="UTF-8"?>
<svg xmlns="http://www.w3.org/2000/svg" width="30" height="30" viewBox="0 0 30 30">
	<path fill="#00af89" fill-rule="evenodd" d="M25.5 26H0l4.5-4.5V5H30v16.5c0 2.55-1.95 4.5-4.5 4.5zm-6.05-7.2c-.63-.21-.63-.77-.7-1.4v-.07c.98-.84 1.75-2.24 1.75-3.78C20.5 10.26 19.1 9 17 9c-1.47 0-3.5.84-3.5 4.55 0 1.47.77 2.87 1.75 3.78v.07c0 .63-.07 1.19-.7 1.4 0 0-2.03.77-2.8 1.05-.91.28-1.75.7-1.75 1.75v.7h14v-.7c0-.84-.56-1.4-1.75-1.75-.84-.28-2.8-1.05-2.8-1.05z"/>
</svg>

<?xml version="1.0" encoding="UTF-8" standalone="no"?>
<svg width="30px" height="30px" viewBox="0 0 30 30" version="1.1" xmlns="http://www.w3.org/2000/svg" xmlns:xlink="http://www.w3.org/1999/xlink" xmlns:sketch="http://www.bohemiancoding.com/sketch/ns">
    <!-- Generator: Sketch 3.4.4 (17249) - http://www.bohemiancoding.com/sketch -->
    <title>flow-usertalk-new-topic</title>
    <desc>Created with Sketch.</desc>
    <defs></defs>
    <g id="Page-1" stroke="none" stroke-width="1" fill="none" fill-rule="evenodd" sketch:type="MSPage">
        <g id="flow-usertalk-new-topic" sketch:type="MSArtboardGroup" fill="#00AF89">
            <path d="M25.5,26 L0,26 L4.5,21.5 L4.5,5 L30,5 L30,21.5 C30,24.05 28.05,26 25.5,26 Z M19.45,18.8 C18.82,18.59 18.82,18.03 18.75,17.4 L18.75,17.33 C19.73,16.49 20.5,15.09 20.5,13.55 C20.5,10.26 19.1,9 17,9 C15.53,9 13.5,9.84 13.5,13.55 C13.5,15.02 14.27,16.42 15.25,17.33 L15.25,17.4 C15.25,18.03 15.18,18.59 14.55,18.8 C14.55,18.8 12.52,19.57 11.75,19.85 C10.84,20.13 10,20.55 10,21.6 L10,22.3 L24,22.3 L24,21.6 C24,20.76 23.44,20.2 22.25,19.85 C21.41,19.57 19.45,18.8 19.45,18.8 Z" id="new-topic" sketch:type="MSShapeGroup"></path>
        </g>
    </g>
</svg>
